source/img/nav/instagram.svg

<svg width="20" height="20" viewBox="0 0 20 20" fill="none" xmlns="http://www.w3.org/2000/svg">
<path d="M20 5.73889C20 2.48333 17.6889 0 14.4333 0H5.94444C2.68889 0 0 2.76111 0 6.01667V14.5056C0 17.7611 2.41111 20 5.66667 20H14.7111C17.9667 20 20 17.7611 20 14.5056V5.73889ZM18.0556 14.4056C18.0556 16.4889 16.6944 18.0556 14.6111 18.0556H5.76667C3.68333 18.0556 1.94444 16.4889 1.94444 14.4056V5.83889C1.94444 3.75556 3.68333 1.94444 5.76667 1.94444H14.3333C16.4167 1.94444 18.0556 3.75556 18.0556 5.83889V14.4056Z" fill="white"/>
<path d="M10.1893 5.09717C7.34206 5.09717 5.02539 7.41383 5.02539 10.2611C5.02539 13.1083 7.34206 15.4249 10.1893 15.4249C13.0365 15.4249 15.3532 13.1083 15.3532 10.2611C15.3532 7.41383 13.0365 5.09717 10.1893 5.09717ZM13.3032 10.2611C13.3032 11.9777 11.9059 13.3749 10.1893 13.3749C8.47261 13.3749 7.07539 11.9777 7.07539 10.2611C7.07539 8.54439 8.47261 7.14717 10.1893 7.14717C11.9059 7.14717 13.3032 8.54439 13.3032 10.2611Z" fill="white"/>
<path d="M15.1749 3.61377C14.5138 3.61377 13.9805 4.14988 13.9805 4.80821C13.9805 5.46933 14.5166 6.00266 15.1749 6.00266C15.836 6.00266 16.3694 5.46933 16.3694 4.80821C16.3694 4.14988 15.836 3.61377 15.1749 3.61377Z" fill="white"/>
</svg>

<svg width="20" height="20" fill="none" xmlns="http://www.w3.org/2000/svg"><path d="M20 5.739C20 2.483 17.689 0 14.433 0H5.944C2.69 0 0 2.761 0 6.017v8.489C0 17.76 2.411 20 5.667 20h9.044C17.967 20 20 17.761 20 14.506V5.739zm-1.944 8.667c0 2.083-1.362 3.65-3.445 3.65H5.767c-2.084 0-3.823-1.567-3.823-3.65V5.839c0-2.083 1.74-3.895 3.823-3.895h8.566c2.084 0 3.723 1.812 3.723 3.895v8.567z" fill="#fff"/><path d="M10.19 5.097a5.17 5.17 0 00-5.165 5.164 5.17 5.17 0 005.164 5.164 5.17 5.17 0 005.164-5.164 5.17 5.17 0 00-5.164-5.164zm3.113 5.164a3.118 3.118 0 01-3.114 3.114 3.118 3.118 0 01-3.114-3.114 3.118 3.118 0 013.114-3.114 3.118 3.118 0 013.114 3.114zm1.872-6.647a1.194 1.194 0 100 2.388 1.194 1.194 0 000-2.388z" fill="#fff"/></svg>
